assets/high_voltage_flat.svg

<svg width="32" height="32" viewBox="0 0 32 32" fill="none" xmlns="http://www.w3.org/2000/svg">
<path d="M17.831 3.30619L8.10544 17.2051C7.84555 17.5751 8.0602 18 8.5 18H12.5C12.8498 18 13 18.14 13 18.5L13 29.2629C13 29.9729 13.8596 30.2828 14.2694 29.7129L23.8883 16.8851C24.1582 16.5152 23.9398 16 23.5 16C23.5 16 20.5 16 20 16C19.5 16 19 15.5 19 15C19 14.5 19 3.99998 19 3.49999C19 3 18.2408 2.72623 17.831 3.30619Z" fill="#FF822D"/>
</svg>

<svg width="32" height="32" fill="none" xmlns="http://www.w3.org/2000/svg"><path d="m17.831 3.306-9.726 13.9c-.26.37-.045.794.395.794h4c.35 0 .5.14.5.5v10.763c0 .71.86 1.02 1.27.45l9.618-12.828c.27-.37.052-.885-.388-.885H20c-.5 0-1-.5-1-1V3.5c0-.5-.76-.774-1.169-.194Z" fill="#FF822D"/></svg>
